X: 34449
T: Ride A Mile
R: slip jig
M: 9/8
K: Bminor
FAF EBE DED D2 B|FAF EBE DFA B2 B|FAF EBE DED D2 f gfe fed AFAB2 B||
dBd fdB AFA DFA|dBd fdB AFA B2 B|dBd fdB AFA def|gfe fed AFA B2 B||
dBd fdd edd fdd|dBd fdd AFA B2 B|dBd fdd edd fdf|gfe fed AFA B2 B||
DFA dAF DFA BGE|DFA dAF DFA B3|DFA dAF DFA Bef|gfe fed AFA B2B||
def def DFA dAF|def def DFA B3|def def ded def|gfe fed AFA B3||

